;FLAVOR:UltiGCode
;TIME:7184      
;MATERIAL:29393     
;MATERIAL2:0         

;Layer count: 271
;LAYER:0
M107
G0 F9000 X96.49 Y43.28 Z0.30
;TYPE:SKIRT
G1 F1800 X97.06 Y42.34 E0.16634
G1 X97.78 Y41.49 E0.33241
G1 X98.62 Y40.76 E0.49898
G1 X99.56 Y40.18 E0.66539
G1 X100.58 Y39.75 E0.83187
G1 X101.66 Y39.48 E0.99827
G1 X102.65 Y39.40 E1.14697
G1 X131.13 Y39.40 E5.41942
G1 X131.88 Y39.46 E5.53180
G1 X132.16 Y39.49 E5.57357
G1 X133.16 Y39.73 E5.72925
G1 X134.19 Y40.15 E5.89476
G1 X135.13 Y40.72 E6.06069
G1 X135.98 Y41.44 E6.22698
G1 X136.70 Y42.28 E6.39343
G1 X137.29 Y43.22 E6.56018
G1 X137.72 Y44.24 E6.72665
G1 X137.98 Y45.32 E6.89240
G1 X138.07 Y46.30 E7.04083
G1 X138.07 Y47.97 E7.29148
G1 X138.07 Y91.34 E13.79593
G1 X181.75 Y91.34 E20.34823
G1 X181.75 Y133.66 E26.69728
G1 X138.07 Y133.66 E33.24958
G1 X138.07 Y178.67 E40.00018
G1 X138.01 Y179.41 E40.11256
G1 X137.98 Y179.69 E40.15389
G1 X137.74 Y180.70 E40.30939
G1 X137.32 Y181.72 E40.47490
G1 X136.75 Y182.67 E40.64124
G1 X136.03 Y183.51 E40.80732
G1 X135.19 Y184.24 E40.97389
G1 X134.25 Y184.82 E41.14030
G1 X133.22 Y185.25 E41.30677
G1 X132.15 Y185.52 E41.47318
G1 X131.16 Y185.60 E41.62187
G1 X102.68 Y185.60 E45.89432
G1 X101.93 Y185.54 E46.00670
G1 X101.65 Y185.51 E46.04848
G1 X100.64 Y185.27 E46.20415
G1 X99.62 Y184.85 E46.36967
G1 X98.68 Y184.28 E46.53560
G1 X97.83 Y183.57 E46.70188
G1 X97.11 Y182.72 E46.86834
G1 X96.52 Y181.78 E47.03508
G1 X96.09 Y180.76 E47.20156
G1 X95.83 Y179.68 E47.36731
G1 X95.74 Y178.70 E47.51573
G1 X95.74 Y177.03 E47.76638
G1 X95.74 Y133.66 E54.27083
G1 X55.18 Y133.66 E60.35468
G1 X54.44 Y133.61 E60.46707
G1 X54.16 Y133.58 E60.50840
G1 X53.15 Y133.34 E60.66389
G1 X52.13 Y132.92 E60.82941
G1 X51.18 Y132.34 E60.99575
G1 X50.34 Y131.63 E61.16182
G1 X49.61 Y130.79 E61.32839
G1 X49.03 Y129.84 E61.49480
G1 X48.60 Y128.82 E61.66127
G1 X48.33 Y127.74 E61.82768
G1 X48.25 Y126.76 E61.97638
G1 X48.25 Y98.27 E66.24883
G1 X48.31 Y97.53 E66.36120
G1 X48.34 Y97.25 E66.40298
G1 X48.58 Y96.24 E66.55866
G1 X48.99 Y95.22 E66.72417
G1 X49.57 Y94.27 E66.89010
G1 X50.28 Y93.42 E67.05638
G1 X51.12 Y92.70 E67.22284
G1 X52.07 Y92.11 E67.38958
G1 X53.09 Y91.69 E67.55606
G1 X54.17 Y91.42 E67.72181
G1 X55.15 Y91.34 E67.87023
G1 X56.18 Y91.34 E68.02488
G1 X95.74 Y91.34 E73.95858
G1 X95.74 Y46.33 E80.70918
G1 X95.80 Y45.59 E80.82157
G1 X95.83 Y45.31 E80.86290
G1 X96.07 Y44.30 E81.01840
G1 X96.49 Y43.28 E81.18391
G10
G0 F9000 X100.07 Y45.09
;TYPE:WALL-INNER
G11
G1 F1800 X100.32 Y44.68 E81.25586
G1 X100.63 Y44.31 E81.32846
G1 X100.99 Y44.00 E81.39919
G1 X101.40 Y43.75 E81.47132
G1 X101.84 Y43.56 E81.54387
G1 X102.31 Y43.44 E81.61586
G1 X102.81 Y43.40 E81.69067
G1 X130.98 Y43.40 E85.91617
G1 X131.49 Y43.44 E85.99289
G1 X131.94 Y43.55 E86.06231
G1 X132.38 Y43.73 E86.13356
G1 X132.79 Y43.98 E86.20647
G1 X133.16 Y44.29 E86.27885
G1 X133.47 Y44.65 E86.34958
G1 X133.72 Y45.06 E86.42221
G1 X133.91 Y45.50 E86.49402
G1 X134.02 Y45.97 E86.56631
G1 X134.07 Y46.47 E86.64143
G1 X134.07 Y95.34 E93.97178
G1 X177.75 Y95.34 E100.52393
G1 X177.75 Y129.66 E105.67298
G1 X134.07 Y129.66 E112.22528
G1 X134.07 Y178.51 E119.55203
G1 X134.03 Y179.02 E119.62891
G1 X133.92 Y179.46 E119.69742
G1 X133.74 Y179.91 E119.77029
G1 X133.49 Y180.32 E119.84224
G1 X133.18 Y180.69 E119.91484
G1 X132.82 Y181.00 E119.98556
G1 X132.41 Y181.25 E120.05770
G1 X131.97 Y181.44 E120.13024
G1 X131.50 Y181.56 E120.20224
G1 X131.00 Y181.60 E120.27704
G1 X102.83 Y181.60 E124.50254
G1 X102.32 Y181.56 E124.57927
G1 X101.87 Y181.45 E124.64868
G1 X101.43 Y181.27 E124.71994
G1 X101.02 Y181.02 E124.79284
G1 X100.65 Y180.71 E124.86523
G1 X100.34 Y180.35 E124.93595
G1 X100.08 Y179.94 E125.00859
G1 X99.90 Y179.50 E125.08040
G1 X99.78 Y179.03 E125.15269
G1 X99.74 Y178.53 E125.22780
G1 X99.74 Y129.66 E132.55815
G1 X55.34 Y129.66 E139.21800
G1 X54.83 Y129.62 E139.29489
G1 X54.39 Y129.52 E139.36340
G1 X53.94 Y129.33 E139.43626
G1 X53.53 Y129.09 E139.50822
G1 X53.16 Y128.77 E139.58081
G1 X52.85 Y128.42 E139.65154
G1 X52.59 Y128.01 E139.72368
G1 X52.41 Y127.56 E139.79622
G1 X52.29 Y127.09 E139.86822
G1 X52.25 Y126.60 E139.94302
G1 X52.25 Y98.43 E144.16852
G1 X52.29 Y97.92 E144.24524
G1 X52.40 Y97.47 E144.31466
G1 X52.58 Y97.03 E144.38591
G1 X52.83 Y96.61 E144.45882
G1 X53.14 Y96.24 E144.53121
G1 X53.50 Y95.94 E144.60193
G1 X53.91 Y95.68 E144.67456
G1 X54.35 Y95.50 E144.74638
G1 X54.82 Y95.38 E144.81852
G1 X55.32 Y95.34 E144.89408
G1 X56.19 Y95.34 E145.02458
G1 X99.74 Y95.34 E151.55738
G1 X99.74 Y46.49 E158.88413
G1 X99.78 Y45.98 E158.96102
G1 X99.89 Y45.54 E159.02953
G1 X100.07 Y45.09 E159.10239
G0 F9000 X115.72 Y70.83
G1 F1800 X115.42 Y71.06 E159.16000
G1 X115.15 Y71.33 E159.21718
G1 X114.94 Y71.65 E159.27443
G1 X114.78 Y72.00 E159.33163
G1 X114.69 Y72.37 E159.38905
G1 X114.66 Y72.74 E159.44473
G1 X114.68 Y73.12 E159.50324
G1 X114.78 Y73.50 E159.56098
G1 X114.94 Y73.84 E159.61805
G1 X115.15 Y74.16 E159.67542
G1 X115.42 Y74.44 E159.73260
G1 X115.72 Y74.66 E159.78987
G1 X116.06 Y74.83 E159.84716
G1 X116.43 Y74.95 E159.90443
G1 X116.81 Y75.00 E159.96161
G1 X117.19 Y74.98 E160.01926
G1 X117.56 Y74.90 E160.07640
G1 X117.92 Y74.76 E160.13347
G1 X118.24 Y74.56 E160.19097
G1 X118.53 Y74.30 E160.24803
G1 X118.77 Y74.01 E160.30519
G1 X118.96 Y73.67 E160.36261
G1 X119.08 Y73.31 E160.41987
G1 X119.15 Y72.94 E160.47726
G1 X119.15 Y72.56 E160.53456
G1 X119.08 Y72.18 E160.59179
G1 X118.96 Y71.82 E160.64906
G1 X118.77 Y71.48 E160.70640
G1 X118.53 Y71.19 E160.76356
G1 X118.24 Y70.94 E160.82084
G1 X117.92 Y70.74 E160.87833
G1 X117.56 Y70.59 E160.93560
G1 X117.19 Y70.51 E160.99283
G1 X116.81 Y70.50 E161.04988
G1 X116.43 Y70.55 E161.10733
G1 X116.06 Y70.66 E161.16464
G1 X115.72 Y70.83 E161.22166
G0 F9000 X99.63 Y95.23
G0 X78.78 Y110.94
G1 F1800 X78.49 Y110.69 E161.27864
G1 X78.16 Y110.49 E161.33604
G1 X77.81 Y110.35 E161.39339
G1 X77.44 Y110.27 E161.45035
G1 X77.05 Y110.25 E161.50800
G1 X76.68 Y110.30 E161.56518
G1 X76.31 Y110.41 E161.62226
G1 X75.97 Y110.58 E161.67968
G1 X75.66 Y110.81 E161.73704
G1 X75.40 Y111.09 E161.79433
G1 X75.19 Y111.40 E161.85162
G1 X75.03 Y111.75 E161.90881
G1 X74.93 Y112.12 E161.96629
G1 X74.90 Y112.49 E162.02182
G1 X74.93 Y112.88 E162.08019
G1 X75.03 Y113.25 E162.13800
G1 X75.19 Y113.60 E162.19519
G1 X75.40 Y113.92 E162.25248
G1 X75.66 Y114.19 E162.30976
G1 X75.97 Y114.42 E162.36712
G1 X76.31 Y114.59 E162.42454
G1 X76.68 Y114.70 E162.48163
G1 X77.05 Y114.75 E162.53880
G1 X77.44 Y114.73 E162.59645
G1 X77.81 Y114.65 E162.65341
G1 X78.16 Y114.51 E162.71076
G1 X78.49 Y114.31 E162.76816
G1 X78.78 Y114.06 E162.82514
G1 X79.02 Y113.76 E162.88242
G1 X79.20 Y113.43 E162.93984
G1 X79.33 Y113.07 E162.99710
G1 X79.39 Y112.69 E163.05434
G1 X79.39 Y112.31 E163.11179
G1 X79.33 Y111.93 E163.16902
G1 X79.20 Y111.57 E163.22628
G1 X79.02 Y111.24 E163.28370
G1 X78.78 Y110.94 E163.34098
G0 F9000 X99.63 Y129.77
G0 X115.42 Y150.56
G1 F1800 X115.15 Y150.84 E163.39816
G1 X114.94 Y151.16 E163.45553
G1 X114.78 Y151.50 E163.51260
G1 X114.69 Y151.87 E163.57001
G1 X114.66 Y152.24 E163.62570
G1 X114.68 Y152.63 E163.68421
G1 X114.78 Y153.00 E163.74195
G1 X114.94 Y153.35 E163.79915
G1 X115.15 Y153.67 E163.85640
G1 X115.42 Y153.94 E163.91359
G1 X115.72 Y154.17 E163.97119
G1 X116.06 Y154.34 E164.02821
G1 X116.43 Y154.46 E164.08552
G1 X116.81 Y154.50 E164.14298
G1 X117.19 Y154.49 E164.20003
G1 X117.56 Y154.41 E164.25725
G1 X117.92 Y154.26 E164.31452
G1 X118.24 Y154.06 E164.37201
G1 X118.53 Y153.81 E164.42929
G1 X118.77 Y153.52 E164.48645
G1 X118.96 Y153.18 E164.54380
G1 X119.08 Y152.82 E164.60106
G1 X119.15 Y152.45 E164.65829
G1 X119.15 Y152.06 E164.71559
G1 X119.08 Y151.69 E164.77298
G1 X118.96 Y151.33 E164.83024
G1 X118.77 Y150.99 E164.88766
G1 X118.53 Y150.70 E164.94482
G1 X118.24 Y150.44 E165.00188
G1 X117.92 Y150.25 E165.05938
G1 X117.56 Y150.10 E165.11645
G1 X117.19 Y150.02 E165.17359
G1 X116.81 Y150.00 E165.23124
G1 X116.43 Y150.05 E165.28842
G1 X116.06 Y150.17 E165.34569
G1 X115.72 Y150.34 E165.40298
G1 X115.42 Y150.56 E165.46025
G0 F9000 X134.18 Y129.77
G0 X154.91 Y113.92
G1 F1800 X155.17 Y114.19 E165.51711
G1 X155.48 Y114.42 E165.57456
G1 X155.82 Y114.59 E165.63198
G1 X156.18 Y114.70 E165.68906
G1 X156.56 Y114.75 E165.74624
G1 X156.94 Y114.73 E165.80374
G1 X157.32 Y114.65 E165.86099
G1 X157.67 Y114.51 E165.91821
G1 X158.00 Y114.31 E165.97565
G1 X158.28 Y114.06 E166.03283
G1 X158.52 Y113.76 E166.09011
G1 X158.71 Y113.43 E166.14732
G1 X158.84 Y113.07 E166.20458
G1 X158.90 Y112.69 E166.26182
G1 X158.90 Y112.31 E166.31927
G1 X158.84 Y111.93 E166.37651
G1 X158.71 Y111.57 E166.43377
G1 X158.52 Y111.24 E166.49098
G1 X158.28 Y110.94 E166.54826
G1 X158.00 Y110.69 E166.60544
G1 X157.67 Y110.49 E166.66288
G1 X157.32 Y110.35 E166.72010
G1 X156.94 Y110.27 E166.77735
G1 X156.56 Y110.25 E166.83485
G1 X156.18 Y110.30 E166.89203
G1 X155.82 Y110.41 E166.94911
G1 X155.48 Y110.58 E167.00653
G1 X155.17 Y110.81 E167.06398
G1 X154.91 Y111.08 E167.12084
G1 X154.69 Y111.40 E167.17842
G1 X154.54 Y111.75 E167.23569
G1 X154.44 Y112.12 E167.29288
G1 X154.41 Y112.49 E167.34859
G1 X154.44 Y112.88 E167.40713
G1 X154.54 Y113.25 E167.46462
G1 X154.69 Y113.60 E167.52188
G1 X154.91 Y113.92 E167.57946
G0 F9000 X155.30 Y113.60
;TYPE:WALL-OUTER
G1 F1800 X155.50 Y113.81 E167.62381
G1 X155.74 Y113.99 E167.66839
G1 X156.01 Y114.12 E167.71300
G1 X156.29 Y114.21 E167.75736
G1 X156.58 Y114.25 E167.80185
G1 X156.88 Y114.24 E167.84644
G1 X157.17 Y114.17 E167.89096
G1 X157.45 Y114.06 E167.93538
G1 X157.70 Y113.91 E167.97997
G1 X157.92 Y113.71 E168.02450
G1 X158.11 Y113.48 E168.06899
G1 X158.25 Y113.22 E168.11351
G1 X158.35 Y112.94 E168.15806
G1 X158.40 Y112.65 E168.20250
G1 X158.40 Y112.35 E168.24705
G1 X158.35 Y112.06 E168.29148
G1 X158.25 Y111.78 E168.33603
G1 X158.11 Y111.52 E168.38056
G1 X157.92 Y111.29 E168.42504
G1 X157.70 Y111.09 E168.46958
G1 X157.45 Y110.94 E168.51416
G1 X157.17 Y110.83 E168.55859
G1 X156.88 Y110.77 E168.60310
G1 X156.58 Y110.75 E168.64770
G1 X156.29 Y110.79 E168.69218
G1 X156.01 Y110.88 E168.73655
G1 X155.74 Y111.01 E168.78116
G1 X155.50 Y111.19 E168.82574
G1 X155.30 Y111.40 E168.87008
G1 X155.13 Y111.65 E168.91481
G1 X155.01 Y111.92 E168.95925
G1 X154.94 Y112.20 E169.00371
G1 X154.91 Y112.49 E169.04677
G1 X154.94 Y112.80 E169.09267
G1 X155.01 Y113.08 E169.13713
G1 X155.13 Y113.35 E169.18157
G1 X155.30 Y113.60 E169.22630
G0 F9000 X155.01 Y113.80
G0 X134.57 Y129.81
G0 X134.57 Y130.16
G1 F1800 X134.57 Y178.54 E176.48285
G1 X134.53 Y179.09 E176.56575
G1 X134.40 Y179.62 E176.64706
G1 X134.19 Y180.14 E176.73124
G1 X133.89 Y180.62 E176.81572
G1 X133.54 Y181.04 E176.89907
G1 X133.12 Y181.41 E176.98246
G1 X132.64 Y181.70 E177.06558
G1 X132.12 Y181.92 E177.15030
G1 X131.58 Y182.05 E177.23434
G1 X131.02 Y182.10 E177.31862
G1 X102.81 Y182.10 E181.55042
G1 X102.25 Y182.06 E181.63421
G1 X101.72 Y181.93 E181.71643
G1 X101.21 Y181.72 E181.79905
G1 X100.72 Y181.43 E181.88420
G1 X100.30 Y181.07 E181.96755
G1 X99.93 Y180.65 E182.05094
G1 X99.64 Y180.17 E182.13460
G1 X99.42 Y179.66 E182.21845
G1 X99.29 Y179.11 E182.30296
G1 X99.24 Y178.55 E182.38726
G1 X99.24 Y130.16 E189.64531
G1 X55.31 Y130.16 E196.23421
G1 X54.76 Y130.12 E196.31801
G1 X54.23 Y129.99 E196.39932
G1 X53.71 Y129.78 E196.48350
G1 X53.23 Y129.49 E196.56798
G1 X52.80 Y129.13 E196.65133
G1 X52.44 Y128.71 E196.73472
G1 X52.15 Y128.24 E196.81784
G1 X51.93 Y127.72 E196.90256
G1 X51.80 Y127.17 E196.98660
G1 X51.75 Y126.61 E197.07088
G1 X51.75 Y98.40 E201.30358
G1 X51.79 Y97.85 E201.38647
G1 X51.92 Y97.31 E201.46869
G1 X52.13 Y96.80 E201.55131
G1 X52.42 Y96.32 E201.63646
G1 X52.78 Y95.89 E201.71981
G1 X53.20 Y95.53 E201.80320
G1 X53.68 Y95.24 E201.88686
G1 X54.19 Y95.02 E201.97071
G1 X54.74 Y94.89 E202.05493
G1 X55.30 Y94.84 E202.13968
G1 X99.24 Y94.84 E208.73083
G1 X99.24 Y46.46 E215.98723
G1 X99.28 Y45.91 E216.07013
G1 X99.41 Y45.38 E216.15144
G1 X99.62 Y44.86 E216.23562
G1 X99.92 Y44.38 E216.32010
G1 X100.27 Y43.96 E216.40345
G1 X100.69 Y43.59 E216.48684
G1 X101.17 Y43.30 E216.56996
G1 X101.69 Y43.08 E216.65468
G1 X102.23 Y42.95 E216.73872
G1 X102.79 Y42.90 E216.82300
G1 X131.00 Y42.90 E221.05480
G1 X131.56 Y42.94 E221.13859
G1 X132.09 Y43.07 E221.22081
G1 X132.60 Y43.28 E221.30343
G1 X133.09 Y43.57 E221.38858
G1 X133.51 Y43.93 E221.47193
G1 X133.88 Y44.35 E221.55531
G1 X134.17 Y44.83 E221.63898
G1 X134.38 Y45.34 E221.72283
G1 X134.52 Y45.88 E221.80629
G1 X134.57 Y46.45 E221.89164
G1 X134.57 Y94.84 E229.14969
G1 X178.25 Y94.84 E235.70199
G1 X178.25 Y130.16 E241.00104
G1 X134.57 Y130.16 E247.55334
G0 F9000 X134.57 Y129.81
G0 X134.18 Y129.77
G0 X118.18 Y150.59
G0 X117.94 Y150.85
G1 F1800 X117.69 Y150.69 E247.59785
G1 X117.42 Y150.58 E247.64233
G1 X117.13 Y150.52 E247.68684
G1 X116.83 Y150.51 E247.73144
G1 X116.54 Y150.54 E247.77592
G1 X116.25 Y150.63 E247.82043
G1 X115.99 Y150.76 E247.86498
G1 X115.75 Y150.94 E247.90959
G1 X115.54 Y151.16 E247.95383
G1 X115.38 Y151.40 E247.99855
G1 X115.26 Y151.67 E248.04280
G1 X115.18 Y151.96 E248.08747
G1 X115.16 Y152.25 E248.13052
G1 X115.18 Y152.55 E248.17640
G1 X115.26 Y152.84 E248.22112
G1 X115.38 Y153.11 E248.26550
G1 X115.54 Y153.35 E248.31010
G1 X115.75 Y153.57 E248.35445
G1 X115.99 Y153.75 E248.39918
G1 X116.25 Y153.88 E248.44352
G1 X116.54 Y153.97 E248.48808
G1 X116.83 Y154.00 E248.53269
G1 X117.13 Y153.99 E248.57714
G1 X117.42 Y153.93 E248.62147
G1 X117.69 Y153.82 E248.66610
G1 X117.94 Y153.66 E248.71060
G1 X118.17 Y153.47 E248.75512
G1 X118.35 Y153.24 E248.79959
G1 X118.50 Y152.97 E248.84424
G1 X118.60 Y152.69 E248.88879
G1 X118.65 Y152.40 E248.93323
G1 X118.65 Y152.11 E248.97763
G1 X118.60 Y151.81 E249.02221
G1 X118.50 Y151.53 E249.06676
G1 X118.35 Y151.27 E249.11141
G1 X118.17 Y151.04 E249.15588
G1 X117.94 Y150.85 E249.20030
G0 F9000 X118.18 Y150.59
G0 X99.63 Y129.77
G0 X78.68 Y113.93
G0 X78.41 Y113.71
G1 F1800 X78.60 Y113.48 E249.24476
G1 X78.75 Y113.22 E249.28942
G1 X78.84 Y112.94 E249.33397
G1 X78.89 Y112.65 E249.37840
G1 X78.89 Y112.35 E249.42295
G1 X78.84 Y112.06 E249.46739
G1 X78.75 Y111.78 E249.51194
G1 X78.60 Y111.52 E249.55659
G1 X78.41 Y111.29 E249.60106
G1 X78.19 Y111.09 E249.64549
G1 X77.94 Y110.94 E249.69003
G1 X77.66 Y110.83 E249.73460
G1 X77.37 Y110.77 E249.77896
G1 X77.08 Y110.75 E249.82356
G1 X76.78 Y110.79 E249.86804
G1 X76.50 Y110.88 E249.91241
G1 X76.23 Y111.01 E249.95702
G1 X75.99 Y111.19 E250.00172
G1 X75.79 Y111.40 E250.04606
G1 X75.62 Y111.65 E250.09070
G1 X75.50 Y111.92 E250.13507
G1 X75.43 Y112.20 E250.17967
G1 X75.40 Y112.49 E250.22273
G1 X75.42 Y112.80 E250.26846
G1 X75.50 Y113.08 E250.31324
G1 X75.62 Y113.35 E250.35761
G1 X75.79 Y113.60 E250.40225
G1 X75.99 Y113.81 E250.44659
G1 X76.23 Y113.99 E250.49129
G1 X76.50 Y114.12 E250.53590
G1 X76.78 Y114.21 E250.58027
G1 X77.08 Y114.25 E250.62476
G1 X77.37 Y114.24 E250.66935
G1 X77.66 Y114.17 E250.71372
G1 X77.94 Y114.06 E250.75828
G1 X78.19 Y113.91 E250.80282
G1 X78.41 Y113.71 E250.84725
G0 F9000 X78.68 Y113.93
G0 X99.63 Y95.23
G0 X115.54 Y74.34
G0 X115.75 Y74.06
G1 F1800 X115.99 Y74.24 E250.89187
G1 X116.25 Y74.37 E250.93641
G1 X116.54 Y74.46 E250.98092
G1 X116.83 Y74.50 E251.02541
G1 X117.13 Y74.48 E251.07000
G1 X117.42 Y74.42 E251.11451
G1 X117.69 Y74.31 E251.15900
G1 X117.94 Y74.15 E251.20350
G1 X118.17 Y73.96 E251.24792
G1 X118.35 Y73.73 E251.29239
G1 X118.50 Y73.47 E251.33704
G1 X118.60 Y73.19 E251.38159
G1 X118.65 Y72.89 E251.42618
G1 X118.65 Y72.60 E251.47058
G1 X118.60 Y72.31 E251.51501
G1 X118.50 Y72.03 E251.55956
G1 X118.35 Y71.77 E251.60422
G1 X118.17 Y71.54 E251.64868
G1 X117.94 Y71.34 E251.69320
G1 X117.69 Y71.18 E251.73771
G1 X117.42 Y71.07 E251.78233
G1 X117.13 Y71.01 E251.82667
G1 X116.83 Y71.00 E251.87111
G1 X116.54 Y71.04 E251.91572
G1 X116.25 Y71.12 E251.96028
G1 X115.99 Y71.26 E252.00462
G1 X115.75 Y71.43 E252.04935
G1 X115.54 Y71.65 E252.09370
G1 X115.38 Y71.89 E252.13830
G1 X115.26 Y72.16 E252.18268
G1 X115.18 Y72.45 E252.22736
G1 X115.16 Y72.74 E252.27041
G1 X115.18 Y73.04 E252.31629
G1 X115.26 Y73.33 E252.36101
G1 X115.38 Y73.60 E252.40525
G1 X115.54 Y73.85 E252.44997
G1 X115.75 Y74.06 E252.49421
G0 F9000 X116.50 Y75.13
;TYPE:FILL
G1 F1800 X133.89 Y92.53 E256.18425
